X: 1
T: An Oidche Bha na Gobhair Aguin
T: The Night the Goats Came Home
C: Trad
O: Scotland, Cape Breton
M: C 
L: 1/8
R: Reel
K: G
e|"G"dG G/G/G dGBd|"(Em)"e/e/e g2 deBe|"G"dG G/G/G dBBe|eddB "D"A2A:|
|:d|"Em"e/e/e g2 dBBd|e/e/e g2 dB g2|b/a/g/f/ g2 "G"dBBd|egdB "D"A2A:|]